X:0639
T:Jumping Joan.
M:C|
L:1/8
Q:1/2=104
I: :: ||
Z:Jack Campin * www.campin.me.uk * 2009
K:G
   g2dB G2BG|E2AE FDDF|g2dB G2BG|EAFD G2 [1 G2:|\
                                         [2 G ||
 g|efge fgab|gfge fddf|efge fgag|fefd g2
Bd|efge dBgB|ceBd AFED|GABG EGce|dBcA G2    G2|]
<end>
<start>
